src/raw/search-favorites/icon_32.svg

<svg width="32" height="32" viewBox="0 0 32 32" fill="none" xmlns="http://www.w3.org/2000/svg">
<path d="M27.933 14.6032C27.933 21.9319 21.9784 27.873 14.633 27.873C7.28762 27.873 1.33301 21.9319 1.33301 14.6032C1.33301 7.27445 7.28762 1.33334 14.633 1.33334C21.9784 1.33334 27.933 7.27445 27.933 14.6032Z" stroke="#71717A" stroke-width="1.5" stroke-linecap="round" stroke-linejoin="round"/>
<path d="M20.4889 11.5343C20.226 11.2601 19.9098 11.0418 19.5596 10.8927C19.2093 10.7436 18.8322 10.6667 18.4511 10.6667C18.07 10.6667 17.6929 10.7436 17.3427 10.8927C16.9924 11.0418 16.6762 11.2601 16.4133 11.5343L14.6667 13.3291L12.92 11.5343C12.6571 11.2601 12.341 11.0418 11.9907 10.8927C11.6404 10.7436 11.2633 10.6667 10.8822 10.6667C10.5012 10.6667 10.1241 10.7436 9.77377 10.8927C9.42349 11.0418 9.10733 11.2601 8.84445 11.5343C8.30243 12.0985 8 12.8486 8 13.6287C8 14.4088 8.30243 15.1589 8.84445 15.7231L14.0459 21.0692C14.126 21.1527 14.2223 21.2191 14.329 21.2645C14.4357 21.3099 14.5506 21.3333 14.6667 21.3333C14.7827 21.3333 14.8976 21.3099 15.0043 21.2645C15.111 21.2191 15.2073 21.1527 15.2874 21.0692L20.4889 15.7231C21.0309 15.1589 21.3333 14.4088 21.3333 13.6287C21.3333 12.8486 21.0309 12.0985 20.4889 11.5343Z" stroke="#71717A" stroke-width="1.5" stroke-linecap="round" stroke-linejoin="round"/>
<path d="M23.2461 24.7153L29.3335 30.6667" stroke="#71717A" stroke-width="1.5" stroke-linecap="round" stroke-linejoin="round"/>
</svg>

<svg xmlns="http://www.w3.org/2000/svg" width="32" height="32" fill="none" viewBox="0 0 32 32">
  <path stroke="#3F3F46" stroke-linecap="round" stroke-linejoin="round" stroke-width="2"
    d="M27.933 14.603c0 7.329-5.954 13.27-13.3 13.27-7.345 0-13.3-5.941-13.3-13.27s5.955-13.27 13.3-13.27c7.346 0 13.3 5.941 13.3 13.27Z" />
  <path stroke="#3F3F46" stroke-linecap="round" stroke-linejoin="round" stroke-width="2"
    d="M20.49 11.534a2.817 2.817 0 0 0-2.038-.868 2.83 2.83 0 0 0-2.038.868l-1.747 1.795-1.746-1.795a2.817 2.817 0 0 0-2.038-.868 2.83 2.83 0 0 0-2.038.868 3.023 3.023 0 0 0 0 4.189l5.201 5.346a.858.858 0 0 0 .959.195.858.858 0 0 0 .283-.195l5.201-5.346a3.023 3.023 0 0 0 0-4.189ZM23.247 24.715l6.087 5.951" />
</svg>
